svg/clockface/clockfacefatsolid/clock_10_20.svg

<?xml version="1.0" encoding="UTF-8" standalone="no"?>
<svg
   height="1000"
   width="1000"
   version="1.1"
   id="h00m00"
   viewBox="0 0 1000 1000"
   sodipodi:docname="clock_10_20.svg"
   xmlns:inkscape="http://www.inkscape.org/namespaces/inkscape"
   xmlns:sodipodi="http://sodipodi.sourceforge.net/DTD/sodipodi-0.dtd"
   xmlns="http://www.w3.org/2000/svg"
   xmlns:svg="http://www.w3.org/2000/svg">
  <defs
     id="defs10" />
  <sodipodi:namedview
     id="namedview8"
     pagecolor="#ffffff"
     bordercolor="#000000"
     borderopacity="0.25"
     inkscape:showpageshadow="2"
     inkscape:pageopacity="0.0"
     inkscape:pagecheckerboard="0"
     inkscape:deskcolor="#d1d1d1" />
  <path
     id="path14"
     style="color:#000000;fill:#000000;stroke-width:60;-inkscape-stroke:none"
     d="M 500 130 C 296.01059 130 130 296.01059 130 500 C 130 703.98941 296.01059 870 500 870 C 703.98941 870 870 703.98941 870 500 C 870 296.01059 703.98941 130 500 130 z M 364.11523 375.35938 L 398.75586 395.35938 L 520 465.35938 L 701.86523 570.35938 L 736.50586 590.35938 L 696.50586 659.64062 L 661.86523 639.64062 L 480 534.64062 L 358.75586 464.64062 L 324.11523 444.64062 L 364.11523 375.35938 z " />
</svg>

<svg xmlns="http://www.w3.org/2000/svg" width="1000" height="1000"><path d="M500 130c-203.99 0-370 166.01-370 370s166.01 370 370 370 370-166.01 370-370-166.01-370-370-370zM364.115 375.36l34.64 20 121.245 70 181.865 105 34.64 20-40 69.28-34.64-20L480 534.64l-121.244-70-34.64-20 40-69.28z" style="-inkscape-stroke:none" stroke-width="60"/></svg>
